X: 472
T: The Highland Laddie
R: reel
B: Robert Bremner "A Collection of Scots Reels or Country Dances" 1757 p.47 #2
S: http://imslp.org/wiki/A_Collection_of_Scots_Reels_or_Country_Dances_(Bremner,_Robert)
Z: 2013 John Chambers <jc:trillian.mit.edu>
M: C
L: 1/8
K: Amix
% - - - - - - - - - - - - - - - - - - - - - - - - -
V: 1
   f | eAcA {de}e2Tc2 | fBBc fBBf | ecac e2Tc2 | (A/B/c/d/ e)B TcAA :|
|: f | fefa     Tf2ec | fBBc fBBf | eaca Te2c2 | (A/B/c/d/ e)B  cAA :|
% - - - - - - - - - - - - - - - - - - - - - - - - -
V: 2 clef=bass middle=d
   z | a2a2 a2a2 | b2b2 b2b2 | a2a2 a2a2 | e2e2 A2A :|
|: z | a2a2 a2a2 | b2b2 b2b2 | a2a2 a2a2 | e2e2 A2A :|
% - - - - - - - - - - - - - - - - - - - - - - - - -

%%sep 1 1 500
%%sep 1 1 500
